elementary-xfce/actions/22/mail-reply-sender.svg

<?xml version="1.0" encoding="UTF-8" standalone="no"?>
<svg
   id="svg3071"
   height="22"
   width="22"
   version="1.1"
   sodipodi:docname="mail-reply-sender.svg"
   inkscape:version="1.2.2 (b0a8486541, 2022-12-01)"
   xmlns:inkscape="http://www.inkscape.org/namespaces/inkscape"
   xmlns:sodipodi="http://sodipodi.sourceforge.net/DTD/sodipodi-0.dtd"
   xmlns:xlink="http://www.w3.org/1999/xlink"
   xmlns="http://www.w3.org/2000/svg"
   xmlns:svg="http://www.w3.org/2000/svg"
   xmlns:rdf="http://www.w3.org/1999/02/22-rdf-syntax-ns#"
   xmlns:cc="http://creativecommons.org/ns#"
   xmlns:dc="http://purl.org/dc/elements/1.1/">
  <sodipodi:namedview
     id="namedview36271"
     pagecolor="#ffffff"
     bordercolor="#000000"
     borderopacity="0.25"
     inkscape:showpageshadow="2"
     inkscape:pageopacity="0.0"
     inkscape:pagecheckerboard="0"
     inkscape:deskcolor="#d1d1d1"
     showgrid="false"
     inkscape:zoom="256"
     inkscape:cx="2.1875"
     inkscape:cy="11.789062"
     inkscape:window-width="1427"
     inkscape:window-height="1053"
     inkscape:window-x="149"
     inkscape:window-y="382"
     inkscape:window-maximized="0"
     inkscape:current-layer="svg3071" />
  <defs
     id="defs3073">
    <linearGradient
       id="linearGradient50">
      <stop
         offset="0"
         style="stop-color:#ffffff;stop-opacity:1"
         id="stop42" />
      <stop
         offset="0.501194"
         style="stop-color:#ffffff;stop-opacity:0.23529412"
         id="stop44" />
      <stop
         offset="1"
         style="stop-color:#ffffff;stop-opacity:0.15686275"
         id="stop46" />
      <stop
         offset="1"
         style="stop-color:#ffffff;stop-opacity:0.39215687"
         id="stop48" />
    </linearGradient>
    <linearGradient
       id="linearGradient2181">
      <stop
         id="stop2173"
         style="stop-color:#ffffff;stop-opacity:1"
         offset="0" />
      <stop
         id="stop2175"
         style="stop-color:#ffffff;stop-opacity:0.23529412"
         offset="0.58888781" />
      <stop
         id="stop2177"
         style="stop-color:#ffffff;stop-opacity:0.15686275"
         offset="1" />
      <stop
         id="stop2179"
         style="stop-color:#ffffff;stop-opacity:0.39215687"
         offset="1" />
    </linearGradient>
    <linearGradient
       id="linearGradient8662">
      <stop
         offset="0"
         style="stop-color:#000000;stop-opacity:1"
         id="stop8664" />
      <stop
         offset="1"
         style="stop-color:#000000;stop-opacity:0"
         id="stop8666" />
    </linearGradient>
    <radialGradient
       gradientTransform="matrix(0.52733388,0,0,-0.35155577,-3.3474597,29.304065)"
       gradientUnits="userSpaceOnUse"
       xlink:href="#linearGradient8662"
       id="radialGradient3140"
       fy="36.421127"
       fx="24.837126"
       r="15.644737"
       cy="36.421127"
       cx="24.837126" />
    <linearGradient
       id="linearGradient971">
      <stop
         id="stop963"
         style="stop-color:#ffffff;stop-opacity:1"
         offset="0" />
      <stop
         id="stop965"
         style="stop-color:#ffffff;stop-opacity:0.23529412"
         offset="0.51999998" />
      <stop
         id="stop967"
         style="stop-color:#ffffff;stop-opacity:0.15686275"
         offset="0.51999998" />
      <stop
         id="stop969"
         style="stop-color:#ffffff;stop-opacity:0.39215687"
         offset="1" />
    </linearGradient>
    <linearGradient
       y2="35.272106"
       x2="5.8849864"
       y1="27.314026"
       x1="5.8849864"
       gradientTransform="matrix(1.004639,0,0,1,6.0877113,-17.171689)"
       gradientUnits="userSpaceOnUse"
       id="linearGradient1903-0-3"
       xlink:href="#linearGradient2181" />
    <linearGradient
       xlink:href="#linearGradient50"
       id="linearGradient1903-5"
       gradientUnits="userSpaceOnUse"
       gradientTransform="matrix(1.004639,0,0,1,6.0877113,-17.171689)"
       x1="5.8849864"
       y1="20.383398"
       x2="5.8849864"
       y2="38.171688" />
    <linearGradient
       xlink:href="#linearGradient971"
       id="linearGradient983-3-2"
       gradientUnits="userSpaceOnUse"
       gradientTransform="matrix(1.004639,0,0,1,11.087711,-17.171689)"
       x1="-2.5213938"
       y1="22.402153"
       x2="-2.5213938"
       y2="35.268829" />
    <linearGradient
       xlink:href="#linearGradient1020"
       id="linearGradient80-3-3-3"
       x1="12"
       y1="7"
       x2="12"
       y2="24"
       gradientUnits="userSpaceOnUse"
       gradientTransform="translate(7.0016123,-4.0000003)" />
    <linearGradient
       id="linearGradient1020">
      <stop
         style="stop-color:#cd9ef7;stop-opacity:1"
         offset="0"
         id="stop1016" />
      <stop
         style="stop-color:#a56de2;stop-opacity:1"
         offset="1"
         id="stop1018" />
    </linearGradient>
  </defs>
  <metadata
     id="metadata3076">
    <rdf:RDF>
      <cc:Work
         rdf:about="">
        <dc:format>image/svg+xml</dc:format>
        <dc:type
           rdf:resource="http://purl.org/dc/dcmitype/StillImage" />
      </cc:Work>
    </rdf:RDF>
  </metadata>
  <path
     d="m 17.999998,16.5 a 8.25,5.5 0 1 0 -16.4999997,0 8.25,5.5 0 0 0 16.4999997,0 z"
     id="path3501"
     style="display:inline;overflow:visible;visibility:visible;opacity:0.141176;fill:url(#radialGradient3140);fill-opacity:1;fill-rule:evenodd;stroke:none;stroke-width:0.999998;marker:none" />
  <path
     id="rect1082-6"
     style="font-variation-settings:normal;opacity:1;vector-effect:none;fill:url(#linearGradient80-3-3-3);fill-opacity:1;stroke:#452981;stroke-width:1;stroke-linecap:round;stroke-linejoin:round;stroke-miterlimit:4;stroke-dasharray:none;stroke-dashoffset:0;stroke-opacity:0.5;stop-color:#000000;stop-opacity:1"
     d="m 9.9999634,3.5 c -0.1538448,0 -0.2829198,0.064176 -0.3749997,0.1679688 -0.0063,0.00735 -0.01283,0.014514 -0.01953,0.021484 L 1.6367183,10.658203 c -0.08612,0.09122 -0.13672,0.206858 -0.13672,0.341797 0,0.134941 0.0506,0.250577 0.136719,0.341797 l 7.9687154,6.96875 c 0.0067,0.007 0.01323,0.01418 0.01953,0.02148 C 9.7170447,18.43582 9.8461177,18.5 9.9999634,18.5 10.285812,18.5 10.499963,18.285849 10.499963,18 v -4 c -1.79e-4,-0.276217 0.223783,-0.500179 0.5,-0.5 h 1 c 3,0 5.935143,2.5 5.990279,5.25 0,0.4155 0.3345,0.75 0.75,0.75 0.496221,0 0.759756,-0.265113 0.759756,-0.75 V 16 c 0.08391,-4 -2.500035,-7.5000003 -7.500035,-7.5000003 h -1 c -0.276217,1.79e-4 -0.500179,-0.223783 -0.5,-0.5 V 4 c 0,-0.2858493 -0.214151,-0.5 -0.4999996,-0.5 z"
     sodipodi:nodetypes="scccscccssccscsscsccss" />
  <path
     d="M 10.999697,12.501953 C 10.172459,12.502221 9.5003047,13.172762 9.5000367,14 v 2.89 L 2.7619723,11 9.5000367,5.11 v 2.8998926 c 2.68e-4,0.827238 0.6724223,1.4977791 1.4996603,1.4980471"
     style="font-variation-settings:normal;opacity:0.5;vector-effect:none;fill:none;fill-opacity:1;stroke:url(#linearGradient983-3-2);stroke-width:1;stroke-linecap:butt;stroke-linejoin:miter;stroke-miterlimit:4;stroke-dasharray:none;stroke-dashoffset:0;stroke-opacity:1;marker:none;marker-start:none;marker-mid:none;marker-end:none;stop-color:#000000"
     id="path873-5-5-2-6-1"
     sodipodi:nodetypes="ccccccc" />
  <path
     id="rect1082-96-8"
     style="font-variation-settings:normal;opacity:0.5;vector-effect:none;fill:none;fill-opacity:1;stroke:url(#linearGradient1903-5);stroke-width:1;stroke-linecap:butt;stroke-linejoin:miter;stroke-miterlimit:4;stroke-dasharray:none;stroke-dashoffset:0;stroke-opacity:1;marker:none;marker-start:none;marker-mid:none;marker-end:none;stop-color:#000000;stop-opacity:1"
     d="m 10.999998,12.503906 h 1 c 4,0 6.74313,3.224377 6.74313,6.496094" />
  <path
     d="m 18.503904,16 c 0,-3.570009 -1.880213,-6.5000003 -6.503906,-6.5000003 H 11"
     style="font-variation-settings:normal;opacity:0.5;vector-effect:none;fill:none;fill-opacity:1;stroke:url(#linearGradient1903-0-3);stroke-width:1;stroke-linecap:butt;stroke-linejoin:miter;stroke-miterlimit:4;stroke-dasharray:none;stroke-dashoffset:0;stroke-opacity:1;marker:none;marker-start:none;marker-mid:none;marker-end:none;stop-color:#000000;stop-opacity:1"
     id="rect1082-96-4-7"
     sodipodi:nodetypes="csc" />
</svg>

<?xml version="1.0" encoding="UTF-8" standalone="no"?>
<svg
   id="svg3071"
   height="22"
   width="22"
   version="1.1"
   sodipodi:docname="mail-reply-sender.svg"
   inkscape:version="1.2.2 (b0a8486541, 2022-12-01)"
   xmlns:inkscape="http://www.inkscape.org/namespaces/inkscape"
   xmlns:sodipodi="http://sodipodi.sourceforge.net/DTD/sodipodi-0.dtd"
   xmlns:xlink="http://www.w3.org/1999/xlink"
   xmlns="http://www.w3.org/2000/svg"
   xmlns:svg="http://www.w3.org/2000/svg"
   xmlns:rdf="http://www.w3.org/1999/02/22-rdf-syntax-ns#"
   xmlns:cc="http://creativecommons.org/ns#"
   xmlns:dc="http://purl.org/dc/elements/1.1/">
  <sodipodi:namedview
     id="namedview36271"
     pagecolor="#ffffff"
     bordercolor="#000000"
     borderopacity="0.25"
     inkscape:showpageshadow="2"
     inkscape:pageopacity="0.0"
     inkscape:pagecheckerboard="0"
     inkscape:deskcolor="#d1d1d1"
     showgrid="false"
     inkscape:zoom="33.5"
     inkscape:cx="10.029851"
     inkscape:cy="12.014925"
     inkscape:window-width="1920"
     inkscape:window-height="1020"
     inkscape:window-x="0"
     inkscape:window-y="0"
     inkscape:window-maximized="1"
     inkscape:current-layer="svg3071" />
  <defs
     id="defs3073">
    <linearGradient
       id="linearGradient50">
      <stop
         offset="0"
         style="stop-color:#ffffff;stop-opacity:1"
         id="stop42" />
      <stop
         offset="0.501194"
         style="stop-color:#ffffff;stop-opacity:0.23529412"
         id="stop44" />
      <stop
         offset="1"
         style="stop-color:#ffffff;stop-opacity:0.15686275"
         id="stop46" />
      <stop
         offset="1"
         style="stop-color:#ffffff;stop-opacity:0.39215687"
         id="stop48" />
    </linearGradient>
    <linearGradient
       id="linearGradient2181">
      <stop
         id="stop2173"
         style="stop-color:#ffffff;stop-opacity:1"
         offset="0" />
      <stop
         id="stop2175"
         style="stop-color:#ffffff;stop-opacity:0.23529412"
         offset="0.58888781" />
      <stop
         id="stop2177"
         style="stop-color:#ffffff;stop-opacity:0.15686275"
         offset="1" />
      <stop
         id="stop2179"
         style="stop-color:#ffffff;stop-opacity:0.39215687"
         offset="1" />
    </linearGradient>
    <linearGradient
       id="linearGradient8662">
      <stop
         offset="0"
         style="stop-color:#000000;stop-opacity:1"
         id="stop8664" />
      <stop
         offset="1"
         style="stop-color:#000000;stop-opacity:0"
         id="stop8666" />
    </linearGradient>
    <radialGradient
       gradientTransform="matrix(0.52995454,0,0,-0.35155577,-3.512615,29.304065)"
       gradientUnits="userSpaceOnUse"
       xlink:href="#linearGradient8662"
       id="radialGradient3140"
       fy="36.421127"
       fx="24.837126"
       r="15.644737"
       cy="36.421127"
       cx="24.837126" />
    <linearGradient
       id="linearGradient971">
      <stop
         id="stop963"
         style="stop-color:#ffffff;stop-opacity:1"
         offset="0" />
      <stop
         id="stop965"
         style="stop-color:#ffffff;stop-opacity:0.23529412"
         offset="0.51999998" />
      <stop
         id="stop967"
         style="stop-color:#ffffff;stop-opacity:0.15686275"
         offset="0.51999998" />
      <stop
         id="stop969"
         style="stop-color:#ffffff;stop-opacity:0.39215687"
         offset="1" />
    </linearGradient>
    <linearGradient
       y2="35.272106"
       x2="5.8849864"
       y1="27.314026"
       x1="5.8849864"
       gradientTransform="matrix(1.004639,0,0,1,6.087713,-17.171689)"
       gradientUnits="userSpaceOnUse"
       id="linearGradient1903-0-3"
       xlink:href="#linearGradient2181" />
    <linearGradient
       xlink:href="#linearGradient50"
       id="linearGradient1903-5"
       gradientUnits="userSpaceOnUse"
       gradientTransform="matrix(1.004639,0,0,1,6.087713,-17.171689)"
       x1="5.8849864"
       y1="20.383398"
       x2="5.8849864"
       y2="38.171688" />
    <linearGradient
       xlink:href="#linearGradient971"
       id="linearGradient983-3-2"
       gradientUnits="userSpaceOnUse"
       gradientTransform="matrix(1.004639,0,0,1,11.087713,-17.171689)"
       x1="-2.5213938"
       y1="22.402153"
       x2="-2.5213938"
       y2="35.268829" />
    <linearGradient
       xlink:href="#linearGradient1020"
       id="linearGradient80-3-3-3"
       x1="12"
       y1="7"
       x2="12"
       y2="24"
       gradientUnits="userSpaceOnUse"
       gradientTransform="translate(7.001614,-4.0000003)" />
    <linearGradient
       id="linearGradient1020">
      <stop
         style="stop-color:#cd9ef7;stop-opacity:1"
         offset="0"
         id="stop1016" />
      <stop
         style="stop-color:#a56de2;stop-opacity:1"
         offset="1"
         id="stop1018" />
    </linearGradient>
  </defs>
  <metadata
     id="metadata3076">
    <rdf:RDF>
      <cc:Work
         rdf:about="">
        <dc:format>image/svg+xml</dc:format>
        <dc:type
           rdf:resource="http://purl.org/dc/dcmitype/StillImage" />
      </cc:Work>
    </rdf:RDF>
  </metadata>
  <path
     d="m 17.940932,16.5 a 8.2909995,5.5 0 1 0 -16.581999,0 8.2909995,5.5 0 0 0 16.581999,0 z"
     id="path3501"
     style="display:inline;overflow:visible;visibility:visible;opacity:0.141176;fill:url(#radialGradient3140);fill-opacity:1;fill-rule:evenodd;stroke:none;stroke-width:0.999998;marker:none" />
  <path
     id="rect1082-6"
     style="font-variation-settings:normal;opacity:1;vector-effect:none;fill:url(#linearGradient80-3-3-3);fill-opacity:1;stroke:#452981;stroke-width:1;stroke-linecap:round;stroke-linejoin:round;stroke-miterlimit:4;stroke-dasharray:none;stroke-dashoffset:0;stroke-opacity:0.5;stop-color:#000000;stop-opacity:1"
     d="M 10,3.5 C 9.846155,3.5 9.71708,3.564176 9.625,3.6679688 9.6187,3.6753188 9.61217,3.6824828 9.60547,3.6894528 L 1.63672,10.658203 C 1.5506,10.749423 1.5,10.865061 1.5,11 c 0,0.134941 0.0506,0.250577 0.136719,0.341797 l 7.96875,6.96875 c 0.0067,0.007 0.01323,0.01418 0.01953,0.02148 C 9.717081,18.43582 9.846154,18.5 10,18.5 c 0.285849,0 0.5,-0.214151 0.5,-0.5 v -4 c -1.79e-4,-0.276217 0.223783,-0.500179 0.5,-0.5 h 1 c 3,0 5.935108,2.5 5.990244,5.25 0,0.4155 0.3345,0.75 0.75,0.75 C 19.236465,19.5 19.5,19.234887 19.5,18.75 V 16 C 19.583913,12 17,8.4999997 12,8.4999997 h -1 c -0.276217,1.79e-4 -0.500179,-0.223783 -0.5,-0.5 V 4 C 10.5,3.7141507 10.285849,3.5 10,3.5 Z" />
  <path
     d="M 11.00036,12.501953 C 10.173122,12.502221 9.502581,13.172762 9.502313,14 v 2.920565 L 2.70536,11 9.502313,5.0619308 v 2.9479618 c 2.68e-4,0.827238 0.670809,1.4977791 1.498047,1.4980471"
     style="font-variation-settings:normal;opacity:0.5;vector-effect:none;fill:none;fill-opacity:1;stroke:url(#linearGradient983-3-2);stroke-width:1;stroke-linecap:butt;stroke-linejoin:miter;stroke-miterlimit:4;stroke-dasharray:none;stroke-dashoffset:0;stroke-opacity:1;marker:none;marker-start:none;marker-mid:none;marker-end:none;stop-color:#000000"
     id="path873-5-5-2-6-1" />
  <path
     id="rect1082-96-8"
     style="font-variation-settings:normal;opacity:0.5;vector-effect:none;fill:none;fill-opacity:1;stroke:url(#linearGradient1903-5);stroke-width:1;stroke-linecap:butt;stroke-linejoin:miter;stroke-miterlimit:4;stroke-dasharray:none;stroke-dashoffset:0;stroke-opacity:1;marker:none;marker-start:none;marker-mid:none;marker-end:none;stop-color:#000000;stop-opacity:1"
     d="m 11,12.503906 h 1 c 4,0 6.74313,3.224377 6.74313,6.496094" />
  <path
     d="M 18.503906,16 C 18.503906,12.429991 16.623693,9.4999997 12,9.4999997 h -1"
     style="font-variation-settings:normal;opacity:0.5;vector-effect:none;fill:none;fill-opacity:1;stroke:url(#linearGradient1903-0-3);stroke-width:1;stroke-linecap:butt;stroke-linejoin:miter;stroke-miterlimit:4;stroke-dasharray:none;stroke-dashoffset:0;stroke-opacity:1;marker:none;marker-start:none;marker-mid:none;marker-end:none;stop-color:#000000;stop-opacity:1"
     id="rect1082-96-4-7" />
</svg>
